X: 260
T: The Frieze Breeches
C: anon.
O: Ireland
B: Francis O'Neill: "The Dance Music of Ireland" (1907) no. 260
R: Double jig
Z: Transcribed by Frank Nordberg - http://www.musicaviva.com
F: http://www.musicaviva.com/abc/tunes/ireland/oneill-1001/oneill-1001-026
0.abc
M: 6/8
L: 1/8
K: D
A/G/|FEF DED|A2d cAG|ABA GAG|F2A GEC|FEF DED|A2d cAG|FEF GEC|DED D2:|
||G|A2d d2e|fed cAG|ABA GAG|F2A GEC|A2d d2e|fed cAG|FEF GEC|DED D2G|A2dd2
d|
fed cAG|ABA (B<c)d|ded cAG|fef efe|ded cAG|FEF GEC|DED D2||F|DED ({d}c)Bc
|AdB cAG|ABc d2e|
fed cAF|DED ({d}c)Bc|AdB cAG|FEF GEC|DED D2:|A|d2e f2g|a2f ({a}g)ed|c2d e
fg|fdf ecA|
d2e f2g|a2f ({a}g)ec|faf egc|ded d2:|d|fdf ece|ded cAG|ABA A2G|F2A GEC|fd
f ece|ded cAG|
FEF GEC|DED D2:|(F/G/)|A2B cBA|c2d cAG|A2d d2e|fed cAG|A2B cBA|dcB cAG|FE
F GEC|
DED D2G|A2B ({d}c2)B|c2d cAG|A2d d2e|fed cAG|faf ({a}g)ec|ded ({d}c)AG|FE
F GEC|DED D2:|
W:
W:
W: From Musica Viva - http://www.musicaviva.com
W: the Internet center for free sheet music downloads.


